X:1
T:O dolci sguardi
T:O dolci sguardi
T:Gio.Girolamo Kapsperger
C:Gio.Girolamo Kapsperger
%%score 1 { ( 2 4 ) | 3 }
L:1/8
Q:1/4=120
M:3/4
K:C
V:1 treble nm="Soprano" snm="S"
V:2 treble nm="BC" snm="BC"
V:4 treble 
V:3 bass 
V:1
 B2 c2 d2 | G2 G2 c2 | c4 B2 |[M:4/4] A2 AB G3 A | A4 G4 ::[M:3/4] G2 A2 B2 | c2 c2 B2 | %7
w: O dol- ci|sguar- di in|me scoc-|ca- te i vo- stri|dar- di,|che se pia-|ga- te son|
w: Va- ghe pu-|pil- le fiam-|me pio-|ve- te a mil- le'a|mil- le,|che se ac-|cen- de- te|
w: Va- li- te'a-|man- ti mi-|ra- col|no- vo d'oc- chi stel-|lan- ti,|per lo- ro'i|pro- vo so-|
 A2 B2 ^c2 | d2 d2 c2 | B2 B2 A2 | G2 A2 B2 | c4 cd | d4 c2 |[M:4/4] z AAB B4 | A3 B G3 A | %15
w: pia- ghe vi-|ta- li e|ser- ban in|vi- ta quei|col- pi mor-|ta- li,|ahi dol- ci sguar-|di, ahi ca- ri|
w: vi- ta- l'e|l'ar- do- r'e'in-|fo- co mo-|ren- do ri-|na- * mio|co- re,|O lo- ci lie-|te, fiam- me pio-|
w: a- vi tor-|men- ti e|can- gio per|lo- ro in|can- to'i la-|men- ti|O stel- le'a- ma-|te, dar- di scoc-|
 A4 G4 :: z AAB B4 | A2 E^F/G/ E/F/G/A/ D/E/F/G/ | D/E/^F/G/ A/B/c/d/ G/A/B/c/ d/e/f/g/ | %19
w: dar- di,|ahi dol- ci sguar-|di, ahi _ _ _ _ _ _ _ _ _ _|_ _ _ _ _ _ _ _ _ _ _ _ _ _ _ _|
w: ve- te,|O lu- ci liet-|te, fiam- * * * * * * * * * *||
w: ca- te,|O stel- le'a- ma-|te, dar- * * * * * * * * * *||
 GA/B/ c>B AAAA | !fermata!G8 :| %21
w: ca- * * ri _ dar- * * *|di.-|
w: me _ _ pio- * ve- * * *|te|
w: di _ _ scoc- * ca- * * *|te.|
V:2
 [GBd]2 [Ec]2 [DG]2 | [EGc]4 [Ac]2 | A4 ^G2 |[M:4/4] [EAc]4 [EG]2 [DG]2 | d4 B4 :: %5
[M:3/4] [EGc]4 [DG]2 | [Ec]4 [DB]2 | [Ac]2 [GB]2 [A^c]2 | [^FAd]2 [Gc]2 [DA]2 | [DB]4 [Ac]2 | %10
 [Gc]2 [FA]2 [B,F]2 | [EG]2 [CA]4 | [DB]4 [EG]2 |[M:4/4] [Ac]2 [FA]2 [EB]2 [E^G]2 | %14
 [EAc]4 [EG]2 [DG]2 | d4 B4 :: [Ac]2 [FAd]2 [^GB]4 | [Ec]4 [EG]4 | [DG]8 | [GB]2 c2 d4 | %20
 !fermata![DGB]8 :| %21
V:3
 G,2 A,2 B,2 | C4 F,2 | D,2 E,4 |[M:4/4] A,,4 C,2 B,,2 | [D,A,]4 G,,4 ::[M:3/4] C4 B,2 | A,4 G,2 | %7
 F,2 E,4 | D,2 E,2 ^F,2 | G,4 F,2 | E,2 D,4 | C,2 F,4 | G,4 C,2 |[M:4/4] F,2 D,2 E,4 | %14
 A,,4 C,2 B,,2 | [D,A,]4 G,,4 :: F,2 D,2 E,4 | A,,4 C,4 | B,,8 | G,,4 [D,A,]4 | .!fermata!G,,8 :| %21
V:4
 x6 | x6 | F2 E4 |[M:4/4] x8 | G2 ^F2 [DG]4 ::[M:3/4] x6 | x6 | x6 | x6 | x6 | x6 | x6 | x6 | %13
[M:4/4] x8 | x8 | G2 ^F2 [DG]4 :: x8 | x8 | x8 | D2 G2 ^F G2 F | x8 :| %21

